svg/fluentui-system-icons/ic_fluent_trophy_20_regular.svg

<svg width="20" height="20" viewBox="0 0 20 20" fill="none" xmlns="http://www.w3.org/2000/svg">
<path d="M2.99609 6.99804C2.99609 8.52171 4.13769 9.77722 5.60593 9.97185C6.01527 11.8314 7.5748 13.2597 9.50063 13.4726V14.9684H7.50426C6.39969 14.9684 5.50426 15.8638 5.50426 16.9684V17.4684C5.50426 17.7446 5.72811 17.9684 6.00426 17.9684H14.0043C14.2804 17.9684 14.5043 17.7446 14.5043 17.4684V16.9684C14.5043 15.8638 13.6088 14.9684 12.5043 14.9684H10.5006V13.4726C12.4257 13.2599 13.9848 11.8328 14.395 9.97434C15.8629 9.78134 16.9961 8.52535 16.9961 7.0047V5.50006C16.9961 4.67163 16.3245 4.00006 15.4961 4.00006H14.5007C14.4997 2.89636 13.6047 2.00195 12.5007 2.00195H7.50073C6.39679 2.00195 5.50176 2.89636 5.50073 4.00006H4.49609C3.66767 4.00006 2.99609 4.67163 2.99609 5.50006V6.99804ZM4.49609 5.00006H5.50073V8.93434C4.63664 8.71114 3.99609 7.92741 3.99609 6.99804V5.50006C3.99609 5.22392 4.21995 5.00006 4.49609 5.00006ZM14.5007 5.00006H15.4961C15.7722 5.00006 15.9961 5.22392 15.9961 5.50006V7.0047C15.9961 7.93404 15.3608 8.71499 14.5007 8.9369V5.00006ZM13.5007 4.00195V9.00006C13.5007 10.9331 11.9337 12.5001 10.0007 12.5001C8.12004 12.5001 6.5858 11.0167 6.50415 9.15614V4.00006H6.50073C6.50176 3.44865 6.94908 3.00195 7.50073 3.00195H12.5007C13.053 3.00195 13.5007 3.44967 13.5007 4.00195ZM6.50426 16.9684C6.50426 16.4161 6.95197 15.9684 7.50426 15.9684H12.5043C13.0565 15.9684 13.5043 16.4161 13.5043 16.9684H6.50426Z" fill="#212121"/>
</svg>

<svg xmlns="http://www.w3.org/2000/svg" width="20" height="20"><path d="M2.996 6.998a3.006 3.006 0 0 0 2.61 2.974 4.503 4.503 0 0 0 3.895 3.5v1.496H7.504a2 2 0 0 0-2 2v.5a.5.5 0 0 0 .5.5h8a.5.5 0 0 0 .5-.5v-.5a2 2 0 0 0-2-2h-2.003v-1.495a4.503 4.503 0 0 0 3.894-3.499 2.996 2.996 0 0 0 2.601-2.97V5.5a1.5 1.5 0 0 0-1.5-1.5h-.995a2 2 0 0 0-2-1.998h-5A2 2 0 0 0 5.5 4H4.496a1.5 1.5 0 0 0-1.5 1.5v1.498ZM4.496 5h1.005v3.934a2.006 2.006 0 0 1-1.505-1.936V5.5a.5.5 0 0 1 .5-.5Zm10.005 0h.995a.5.5 0 0 1 .5.5v1.505c0 .929-.635 1.71-1.495 1.932V5Zm-1-.998V9a3.5 3.5 0 0 1-6.997.156V4h-.003a1 1 0 0 1 1-.998h5a1 1 0 0 1 1 1ZM6.504 16.968a1 1 0 0 1 1-1h5a1 1 0 0 1 1 1h-7Z"/></svg>
